; G-Code generated by Simplify3D(R) Version 4.1.2
; Jul 4, 2020 at 12:13:42 PM
; Settings Summary
;   processName,Process1
;   applyToModels,boden
;   profileName,km_default(2) (modified)
;   profileVersion,2020-05-31 01:46:52
;   baseProfile,Qidi Technology X-one
;   printMaterial,ASA
;   printQuality,Medium
;   printExtruders,
;   extruderName,Primary Extruder
;   extruderToolheadNumber,0
;   extruderDiameter,0.4
;   extruderAutoWidth,1
;   extruderWidth,0.48
;   extrusionMultiplier,1
;   extruderUseRetract,1
;   extruderRetractionDistance,1.5
;   extruderExtraRestartDistance,0
;   extruderRetractionZLift,0
;   extruderRetractionSpeed,1800
;   extruderUseCoasting,0
;   extruderCoastingDistance,0.2
;   extruderUseWipe,0
;   extruderWipeDistance,5
;   primaryExtruder,0
;   layerHeight,0.2
;   topSolidLayers,3
;   bottomSolidLayers,2
;   perimeterOutlines,2
;   printPerimetersInsideOut,1
;   startPointOption,2
;   startPointOriginX,0
;   startPointOriginY,0
;   sequentialIslands,0
;   spiralVaseMode,0
;   firstLayerHeightPercentage,120
;   firstLayerWidthPercentage,100
;   firstLayerUnderspeed,0.5
;   useRaft,0
;   raftExtruder,0
;   raftTopLayers,3
;   raftBaseLayers,2
;   raftOffset,3
;   raftSeparationDistance,0.14
;   raftTopInfill,100
;   aboveRaftSpeedMultiplier,0.3
;   useSkirt,1
;   skirtExtruder,0
;   skirtLayers,1
;   skirtOutlines,2
;   skirtOffset,4
;   usePrimePillar,0
;   primePillarExtruder,999
;   primePillarWidth,12
;   primePillarLocation,7
;   primePillarSpeedMultiplier,1
;   useOozeShield,0
;   oozeShieldExtruder,999
;   oozeShieldOffset,2
;   oozeShieldOutlines,1
;   oozeShieldSidewallShape,1
;   oozeShieldSidewallAngle,30
;   oozeShieldSpeedMultiplier,1
;   infillExtruder,0
;   internalInfillPattern,Rectilinear
;   externalInfillPattern,Rectilinear
;   infillPercentage,20
;   outlineOverlapPercentage,20
;   infillExtrusionWidthPercentage,100
;   minInfillLength,5
;   infillLayerInterval,1
;   internalInfillAngles,45,-45
;   overlapInternalInfillAngles,0
;   externalInfillAngles,45,-45
;   generateSupport,0
;   supportExtruder,0
;   supportInfillPercentage,30
;   supportExtraInflation,0
;   supportBaseLayers,0
;   denseSupportExtruder,0
;   denseSupportLayers,0
;   denseSupportInfillPercentage,70
;   supportLayerInterval,1
;   supportHorizontalPartOffset,0.3
;   supportUpperSeparationLayers,1
;   supportLowerSeparationLayers,1
;   supportType,0
;   supportGridSpacing,4
;   maxOverhangAngle,45
;   supportAngles,0
;   temperatureName,Primary Extruder,Heated Bed
;   temperatureNumber,0,0
;   temperatureSetpointCount,1,1
;   temperatureSetpointLayers,1,1
;   temperatureSetpointTemperatures,240,85
;   temperatureStabilizeAtStartup,1,1
;   temperatureHeatedBed,0,1
;   fanLayers,1
;   fanSpeeds,70
;   blipFanToFullPower,0
;   adjustSpeedForCooling,1
;   minSpeedLayerTime,15
;   minCoolingSpeedSlowdown,20
;   increaseFanForCooling,0
;   minFanLayerTime,45
;   maxCoolingFanSpeed,100
;   increaseFanForBridging,0
;   bridgingFanSpeed,100
;   use5D,1
;   relativeEdistances,0
;   allowEaxisZeroing,1
;   independentExtruderAxes,0
;   includeM10123,0
;   stickySupport,1
;   applyToolheadOffsets,0
;   gcodeXoffset,0
;   gcodeYoffset,0
;   gcodeZoffset,0
;   overrideMachineDefinition,1
;   machineTypeOverride,0
;   strokeXoverride,300
;   strokeYoverride,250
;   strokeZoverride,300
;   originOffsetXoverride,0
;   originOffsetYoverride,0
;   originOffsetZoverride,0
;   homeXdirOverride,1
;   homeYdirOverride,1
;   homeZdirOverride,1
;   flipXoverride,1
;   flipYoverride,-1
;   flipZoverride,1
;   toolheadOffsets,0,0|0,0|0,0|0,0|0,0|0,0
;   overrideFirmwareConfiguration,1
;   firmwareTypeOverride,RepRap (Marlin/Repetier/Sprinter)
;   GPXconfigOverride,r2
;   baudRateOverride,115200
;   overridePrinterModels,1
;   printerModelsOverride
;   startingGcode,G92 A0 B0 ; set current pos as ref pos this zero extruders,G28 X0 Y0 ; Home X ynd Y axis,G0 X-1000 Y-1000 F1800 ; move head to X=-1000 and Y=-1000 (left front corner) with 30mm/s,G28 Z0 ; Home Z axis,G1 X0 Y0 Z50 F3600 ; move X Y to 0 and bed (Z) to 50mm below head with 60mm/s,G1 X0 Y0 F3600 ; again move X Y to 0 with 60mm/s,G92 E0 ; Reset the extruders origin,G92 A0 B0 ; zero extruders,G0 X0 Y4 Z0.3 F3600 ; move Y to 4 and bed 0.3mm below head with 60mm/s,G1 X160 Y5 F2400 ; move to X=160 and Y=5 with 40mm/s,G1 X5 A13 F2400 ; move from X=160 to X=5 with 40mm/s and extrude 13mm/min,G92 A0 B0,G1 X5 F2400
;   layerChangeGcode,
;   retractionGcode,
;   toolChangeGcode,
;   endingGcode,M107 ; turn fan off,M104 S0 T1 ; cool  extruder,M140 S0 ; cool build plate,G1 Z300 F900 ; lower build plate,G28 X Y ; home XY axes,M84 ; disable motors
;   exportFileFormat,gcode
;   celebration,0
;   celebrationSong,Random Song
;   postProcessing,
;   defaultSpeed,4800
;   outlineUnderspeed,0.5
;   solidInfillUnderspeed,0.8
;   supportUnderspeed,0.8
;   rapidXYspeed,6000
;   rapidZspeed,1002
;   minBridgingArea,50
;   bridgingExtraInflation,0
;   bridgingExtrusionMultiplier,1
;   bridgingSpeedMultiplier,1
;   useFixedBridgingAngle,0
;   fixedBridgingAngle,0
;   applyBridgingToPerimeters,0
;   filamentDiameters,1.75|1.75|1.75|1.75|1.75|1.75
;   filamentPricesPerKg,46|46|46|46|46|46
;   filamentDensities,1.25|1.25|1.25|1.25|1.25|1.25
;   useMinPrintHeight,0
;   minPrintHeight,0
;   useMaxPrintHeight,0
;   maxPrintHeight,0
;   useDiaphragm,0
;   diaphragmLayerInterval,20
;   robustSlicing,1
;   mergeAllIntoSolid,0
;   onlyRetractWhenCrossingOutline,1
;   retractBetweenLayers,1
;   useRetractionMinTravel,0
;   retractionMinTravel,3
;   retractWhileWiping,0
;   onlyWipeOutlines,1
;   avoidCrossingOutline,0
;   maxMovementDetourFactor,3
;   toolChangeRetractionDistance,12
;   toolChangeExtraRestartDistance,-0.5
;   toolChangeRetractionSpeed,600
;   externalThinWallType,0
;   internalThinWallType,2
;   thinWallAllowedOverlapPercentage,10
;   singleExtrusionMinLength,1
;   singleExtrusionMinPrintingWidthPercentage,50
;   singleExtrusionMaxPrintingWidthPercentage,200
;   singleExtrusionEndpointExtension,0.2
;   horizontalSizeCompensation,0
G90
M82
M106 S179
M140 S85
M190 S85
M104 S240 T0
M109 S240 T0
G92 A0 B0 ; set current pos as ref pos this zero extruders
G28 X0 Y0 ; Home X ynd Y axis
G0 X-1000 Y-1000 F1800 ; move head to X=-1000 and Y=-1000 (left front corner) with 30mm/s
G28 Z0 ; Home Z axis
G1 X0 Y0 Z50 F3600 ; move X Y to 0 and bed (Z) to 50mm below head with 60mm/s
G1 X0 Y0 F3600 ; again move X Y to 0 with 60mm/s
G92 E0 ; Reset the extruders origin
G92 A0 B0 ; zero extruders
G0 X0 Y4 Z0.3 F3600 ; move Y to 4 and bed 0.3mm below head with 60mm/s
G1 X160 Y5 F2400 ; move to X=160 and Y=5 with 40mm/s
G1 X5 A13 F2400 ; move from X=160 to X=5 with 40mm/s and extrude 13mm/min
G92 A0 B0
G1 X5 F2400
; process Process1
; layer 1, Z = 0.240
T0
G92 E0.0000
G1 E-1.5000 F1800
; feature skirt
; tool H0.240 W0.480
G1 Z0.240 F1002
G1 X16.045 Y33.780 F6000
G1 E0.0000 F1800
G92 E0.0000
G1 X63.715 Y33.780 E2.2831 F2400
G1 X66.480 Y36.545 E2.4704
G1 X66.480 Y53.739 E3.2939
G1 X66.736 Y119.121 E6.4254
G1 X75.349 Y119.121 E6.8379
G1 X75.221 Y52.246 E10.0411
G1 X75.221 Y49.659 E10.1650
G1 X75.213 Y45.759 E10.3518
G1 X75.221 Y45.757 E10.3521
G1 X75.221 Y36.545 E10.7934
G1 X77.986 Y33.780 E10.9806
G1 X126.380 Y33.780 E13.2985
G1 X129.145 Y36.545 E13.4857
G1 X129.145 Y190.280 E20.8488
G1 X150.991 Y190.280 E21.8951
G1 X150.991 Y102.850 E26.0826
G1 X153.756 Y100.085 E26.2698
G1 X186.250 Y100.085 E27.8261
G1 X186.250 Y36.545 E30.8693
G1 X189.015 Y33.780 E31.0566
G1 X283.955 Y33.780 E35.6038
G1 X286.720 Y36.545 E35.7910
G1 X286.720 Y213.455 E44.2641
G1 X283.955 Y216.220 E44.4513
G1 X16.045 Y216.220 E57.2828
G1 X13.280 Y213.455 E57.4701
G1 X13.280 Y36.545 E65.9431
G1 X16.045 Y33.780 E66.1304
G92 E0.0000
G1 E-1.5000 F1800
G1 X16.244 Y34.260 F6000
G1 E0.0000 F1800
G92 E0.0000
G1 X63.516 Y34.260 E2.2641 F2400
G1 X66.000 Y36.744 E2.4323
G1 X66.000 Y53.741 E3.2464
G1 X66.258 Y119.601 E6.4008
G1 X75.830 Y119.601 E6.8592
G1 X75.701 Y51.850 E10.1043
G1 X75.701 Y49.659 E10.2093
G1 X75.694 Y46.155 E10.3771
G1 X75.701 Y46.154 E10.3774
G1 X75.701 Y36.744 E10.8281
G1 X78.184 Y34.260 E10.9963
G1 X126.181 Y34.260 E13.2951
G1 X128.665 Y36.744 E13.4633
G1 X128.665 Y190.760 E20.8399
G1 X151.471 Y190.760 E21.9322
G1 X151.471 Y103.048 E26.1331
G1 X153.955 Y100.565 E26.3013
G1 X186.730 Y100.565 E27.8711
G1 X186.730 Y36.744 E30.9277
G1 X189.214 Y34.260 E31.0960
G1 X283.756 Y34.260 E35.6240
G1 X286.240 Y36.744 E35.7923
G1 X286.240 Y213.256 E44.2463
G1 X283.756 Y215.740 E44.4145
G1 X16.244 Y215.740 E57.2269
G1 X13.760 Y213.256 E57.3951
G1 X13.760 Y36.744 E65.8491
G1 X16.244 Y34.260 E66.0174
G92 E0.0000
G1 E-1.5000 F1800
; feature inner perimeter
G1 X18.720 Y39.220 F6000
G1 E0.0000 F1800
G92 E0.0000
G1 X61.040 Y39.220 E2.0269 F1800
G1 X61.040 Y53.752 E2.7229
G1 X61.318 Y124.561 E6.1143
G1 X80.799 Y124.561 E7.0474
G1 X80.665 Y51.688 E10.5376
G1 X81.031 Y51.873 E10.5573
G1 X81.256 Y51.958 E10.5688
G1 X81.660 Y52.065 E10.5888
G1 X82.088 Y52.117 E10.6094
G1 X82.506 Y52.110 E10.6295
G1 X82.732 Y52.083 E10.6404
G1 X82.956 Y52.040 E10.6513
G1 X83.357 Y51.919 E10.6713
G1 X83.748 Y51.739 E10.6920
G1 X84.111 Y51.507 E10.7126
G1 X84.429 Y51.235 E10.7326
G1 X84.594 Y51.060 E10.7442
G1 X84.842 Y50.739 E10.7636
G1 X84.968 Y50.534 E10.7751
G1 X85.144 Y50.169 E10.7945
G1 X85.225 Y49.942 E10.8060
G1 X85.327 Y49.530 E10.8264
G1 X85.373 Y49.000 E10.8519
G1 X85.327 Y48.470 E10.8774
G1 X85.225 Y48.058 E10.8977
G1 X85.144 Y47.831 E10.9092
G1 X84.968 Y47.466 E10.9286
G1 X84.842 Y47.261 E10.9402
G1 X84.594 Y46.940 E10.9596
G1 X84.429 Y46.765 E10.9711
G1 X84.111 Y46.493 E10.9911
G1 X83.748 Y46.261 E11.0118
G1 X83.357 Y46.081 E11.0324
G1 X82.956 Y45.960 E11.0524
G1 X82.732 Y45.917 E11.0634
G1 X82.506 Y45.890 E11.0743
G1 X82.088 Y45.882 E11.0943
G1 X81.660 Y45.934 E11.1149
G1 X81.256 Y46.042 E11.1350
G1 X81.031 Y46.127 E11.1465
G1 X80.661 Y46.313 E11.1663
G1 X80.661 Y39.220 E11.5061
G1 X123.705 Y39.220 E13.5677
G1 X123.705 Y195.720 E21.0632
G1 X156.431 Y195.720 E22.6306
G1 X156.431 Y105.525 E26.9504
G1 X191.690 Y105.525 E28.6391
G1 X191.690 Y39.220 E31.8148
G1 X281.280 Y39.220 E36.1057
G1 X281.280 Y210.780 E44.3225
G1 X18.720 Y210.780 E56.8977
G1 X18.720 Y39.220 E65.1145
; feature outer perimeter
G1 X18.240 Y38.740 F6000
G92 E0.0000
G1 X61.520 Y38.740 E2.0729 F1200
G1 X61.520 Y53.750 E2.7918
G1 X61.796 Y124.081 E6.1603
G1 X80.319 Y124.081 E7.0474
G1 X80.183 Y50.638 E10.5650
G1 X80.211 Y50.678 E10.5674
G1 X80.338 Y50.820 E10.5765
G1 X80.603 Y51.064 E10.5937
G1 X80.903 Y51.271 E10.6112
G1 X81.225 Y51.433 E10.6284
G1 X81.403 Y51.501 E10.6376
G1 X81.751 Y51.593 E10.6548
G1 X82.113 Y51.637 E10.6723
G1 X82.473 Y51.631 E10.6895
G1 X82.658 Y51.608 E10.6985
G1 X82.841 Y51.573 E10.7074
G1 X83.186 Y51.469 E10.7246
G1 X83.517 Y51.317 E10.7421
G1 X83.824 Y51.120 E10.7596
G1 X84.098 Y50.886 E10.7768
G1 X84.229 Y50.748 E10.7859
G1 X84.446 Y50.466 E10.8030
G1 X84.546 Y50.303 E10.8121
G1 X84.701 Y49.983 E10.8292
G1 X84.765 Y49.803 E10.8383
G1 X84.852 Y49.452 E10.8557
G1 X84.891 Y49.000 E10.8774
G1 X84.852 Y48.548 E10.8991
G1 X84.765 Y48.197 E10.9164
G1 X84.701 Y48.017 E10.9255
G1 X84.546 Y47.697 E10.9426
G1 X84.446 Y47.534 E10.9517
G1 X84.229 Y47.252 E10.9688
G1 X84.098 Y47.114 E10.9779
G1 X83.824 Y46.880 E10.9952
G1 X83.517 Y46.683 E11.0126
G1 X83.186 Y46.531 E11.0301
G1 X82.841 Y46.427 E11.0473
G1 X82.658 Y46.392 E11.0563
G1 X82.473 Y46.369 E11.0652
G1 X82.113 Y46.363 E11.0824
G1 X81.751 Y46.407 E11.0999
G1 X81.403 Y46.499 E11.1171
G1 X81.225 Y46.567 E11.1263
G1 X80.903 Y46.729 E11.1435
G1 X80.603 Y46.936 E11.1610
G1 X80.338 Y47.180 E11.1782
G1 X80.211 Y47.322 E11.1874
G1 X80.181 Y47.365 E11.1899
G1 X80.181 Y38.740 E11.6030
G1 X124.185 Y38.740 E13.7105
G1 X124.185 Y195.240 E21.2060
G1 X155.951 Y195.240 E22.7275
G1 X155.951 Y105.045 E27.0473
G1 X191.210 Y105.045 E28.7360
G1 X191.210 Y38.740 E31.9117
G1 X281.760 Y38.740 E36.2485
G1 X281.760 Y211.260 E44.5113
G1 X18.240 Y211.260 E57.1325
G1 X18.240 Y38.740 E65.3953
; feature inner perimeter
G1 X28.446 Y91.929 F6000
G92 E0.0000
G1 X28.048 Y92.028 E0.0196 F1800
G1 X27.819 Y92.111 E0.0313
G1 X27.439 Y92.296 E0.0515
G1 X27.088 Y92.533 E0.0718
G1 X26.912 Y92.681 E0.0828
G1 X26.746 Y92.841 E0.0939
G1 X26.474 Y93.165 E0.1141
G1 X26.250 Y93.524 E0.1344
G1 X26.144 Y93.742 E0.1460
G1 X26.003 Y94.128 E0.1657
G1 X25.945 Y94.363 E0.1773
G1 X25.886 Y94.782 E0.1976
G1 X25.886 Y95.218 E0.2184
G1 X25.945 Y95.637 E0.2387
G1 X26.003 Y95.872 E0.2503
G1 X26.148 Y96.270 E0.2706
G1 X26.351 Y96.651 E0.2912
G1 X26.601 Y96.996 E0.3117
G1 X26.764 Y97.177 E0.3233
G1 X27.078 Y97.460 E0.3436
G1 X27.429 Y97.696 E0.3638
G1 X27.632 Y97.805 E0.3749
G1 X27.843 Y97.898 E0.3859
G1 X28.245 Y98.029 E0.4062
G1 X28.661 Y98.102 E0.4264
G1 X28.904 Y98.119 E0.4380
G1 X29.326 Y98.105 E0.4583
G1 X29.743 Y98.031 E0.4786
G1 X29.964 Y97.968 E0.4896
G1 X30.181 Y97.889 E0.5006
G1 X30.561 Y97.704 E0.5209
G1 X30.912 Y97.467 E0.5411
G1 X31.088 Y97.319 E0.5522
G1 X31.254 Y97.159 E0.5632
G1 X31.526 Y96.835 E0.5835
G1 X31.750 Y96.476 E0.6037
G1 X31.856 Y96.258 E0.6154
G1 X31.997 Y95.872 E0.6350
G1 X32.055 Y95.637 E0.6466
G1 X32.114 Y95.218 E0.6669
G1 X32.114 Y94.782 E0.6878
G1 X32.055 Y94.363 E0.7080
G1 X31.997 Y94.128 E0.7197
G1 X31.856 Y93.742 E0.7393
G1 X31.750 Y93.524 E0.7509
G1 X31.532 Y93.176 E0.7706
G1 X31.390 Y92.994 E0.7816
G1 X31.236 Y92.823 E0.7927
G1 X30.922 Y92.540 E0.8129
G1 X30.571 Y92.304 E0.8332
G1 X30.368 Y92.195 E0.8442
G1 X30.157 Y92.102 E0.8552
G1 X29.755 Y91.971 E0.8755
G1 X29.339 Y91.898 E0.8958
G1 X29.096 Y91.881 E0.9074
G1 X28.686 Y91.895 E0.9270
G1 X28.446 Y91.929 E0.9387
; feature outer perimeter
G1 X28.537 Y92.401 F6000
G92 E0.0000
G1 X28.188 Y92.488 E0.0172 F1200
G1 X28.007 Y92.554 E0.0265
G1 X27.680 Y92.713 E0.0439
G1 X27.378 Y92.917 E0.0614
G1 X27.233 Y93.038 E0.0704
G1 X27.098 Y93.169 E0.0794
G1 X26.864 Y93.448 E0.0969
G1 X26.671 Y93.757 E0.1143
G1 X26.586 Y93.930 E0.1235
G1 X26.463 Y94.268 E0.1408
G1 X26.417 Y94.455 E0.1500
G1 X26.366 Y94.816 E0.1674
G1 X26.366 Y95.184 E0.1851
G1 X26.417 Y95.545 E0.2025
G1 X26.463 Y95.732 E0.2118
G1 X26.588 Y96.074 E0.2292
G1 X26.759 Y96.396 E0.2467
G1 X26.975 Y96.694 E0.2643
G1 X27.104 Y96.837 E0.2735
G1 X27.374 Y97.081 E0.2909
G1 X27.676 Y97.284 E0.3084
G1 X27.843 Y97.373 E0.3174
G1 X28.015 Y97.450 E0.3264
G1 X28.361 Y97.562 E0.3439
G1 X28.720 Y97.625 E0.3613
G1 X28.912 Y97.639 E0.3706
G1 X29.276 Y97.626 E0.3880
G1 X29.635 Y97.563 E0.4054
G1 X29.816 Y97.511 E0.4145
G1 X29.993 Y97.446 E0.4235
G1 X30.320 Y97.287 E0.4409
G1 X30.622 Y97.083 E0.4584
G1 X30.767 Y96.962 E0.4674
G1 X30.902 Y96.831 E0.4764
G1 X31.136 Y96.552 E0.4939
G1 X31.329 Y96.243 E0.5113
G1 X31.414 Y96.070 E0.5206
G1 X31.537 Y95.732 E0.5378
G1 X31.583 Y95.545 E0.5470
G1 X31.634 Y95.184 E0.5645
G1 X31.634 Y94.816 E0.5821
G1 X31.583 Y94.455 E0.5996
G1 X31.537 Y94.268 E0.6088
G1 X31.414 Y93.930 E0.6260
G1 X31.329 Y93.757 E0.6353
G1 X31.139 Y93.451 E0.6525
G1 X31.022 Y93.303 E0.6615
G1 X30.896 Y93.163 E0.6705
G1 X30.626 Y92.919 E0.6880
G1 X30.324 Y92.716 E0.7054
G1 X30.157 Y92.627 E0.7145
G1 X29.985 Y92.550 E0.7235
G1 X29.639 Y92.438 E0.7409
G1 X29.280 Y92.375 E0.7584
G1 X29.088 Y92.361 E0.7676
G1 X28.728 Y92.374 E0.7848
G1 X28.537 Y92.401 E0.7941
G92 E0.0000
G1 E-1.5000 F1800
; feature inner perimeter
G1 X28.891 Y151.880 F6000
G1 E0.0000 F1800
G92 E0.0000
G1 X28.470 Y151.924 E0.0203 F1800
G1 X28.245 Y151.972 E0.0313
G1 X28.024 Y152.036 E0.0423
G1 X27.643 Y152.189 E0.0620
G1 X27.429 Y152.304 E0.0736
G1 X27.078 Y152.540 E0.0939
G1 X26.764 Y152.823 E0.1141
G1 X26.601 Y153.004 E0.1258
G1 X26.360 Y153.335 E0.1454
G1 X26.240 Y153.543 E0.1569
G1 X26.072 Y153.920 E0.1767
G1 X25.997 Y154.152 E0.1883
G1 X25.911 Y154.553 E0.2080
G1 X25.886 Y154.795 E0.2196
G1 X25.886 Y155.218 E0.2399
G1 X25.945 Y155.637 E0.2601
G1 X26.003 Y155.872 E0.2718
G1 X26.144 Y156.258 E0.2914
G1 X26.250 Y156.476 E0.3031
G1 X26.474 Y156.835 E0.3233
G1 X26.746 Y157.159 E0.3436
G1 X26.912 Y157.319 E0.3546
G1 X27.088 Y157.467 E0.3656
G1 X27.439 Y157.704 E0.3859
